layouts/icon-pack/spell_bleed.svg

<?xml version="1.0" encoding="UTF-8"?>
<svg width="1200pt" height="1200pt" version="1.1" viewBox="0 0 1200 1200" xmlns="http://www.w3.org/2000/svg">
 <path d="m891.66 933.68c-1.3906-7.2109-2.1758-14.527-2.3438-21.867-0.39844-17.195 8.1797-33.359 22.641-42.668 14.461-9.3086 32.723-10.422 48.211-2.9414 25.781 12.422 50.25 23.438 73.406 33.211 49.711 20.859 92.391-41.531 54.914-80.297-96.492-99.797-190.27-190.03-279.59-271.05v-70.102c-0.003907-20.559-6.6289-40.57-18.891-57.07-8.2031-11.062-16.266-21.867-23.133-31.055-4.8164-6.2852-7.1211-14.133-6.4648-22.023 0.65234-7.8867 4.2188-15.25 10.004-20.656 6.2969-5.6797 14.633-8.5547 23.09-7.9688 8.4609 0.58984 16.32 4.5898 21.77 11.086 18.305 21.844 40.125 48.164 58.734 70.664 21.746 26.352 50.453 46.078 82.852 56.93 35.246 11.824 71.152 21.59 107.53 29.25 26.016 5.4609 47.32-22.102 34.547-45.422-76.617-139.85-198.09-234.98-198.09-234.98-151.97-113.86-280.12-160.9-347.6-179.46-7.0547-1.9258-14.57-1.2188-21.145 1.9844-6.5742 3.207-11.758 8.6953-14.586 15.441-2.8281 6.7422-3.1094 14.289-0.78516 21.223 39.281 116.7 96.727 177.26 96.727 177.26s65.625 77.203 71.25 175.48c-222.23-189.73-407.77-316.76-524.23-386.32-37.758-22.547-80.203 21.258-56.391 58.219 5.7656 8.9531 11.602 17.82 17.508 26.602h-0.14062s91.828 169.1 79.875 477.14l0.82031 88.523c0.4375 29.191-4.7109 58.195-15.164 85.453-2.5039 6.4531-5.3516 12.766-8.5312 18.914-13.371 24.934-20.926 52.566-22.102 80.836-0.89062 28.875 5.1094 61.594 29.766 85.219 17.895 16.898 42.004 25.602 66.562 24.027 24.562-1.5742 47.363-13.281 62.953-32.324 14.367-17.836 25.102-43.852 23.859-81.703-0.81641-19.211-5.4375-38.066-13.594-55.477-21.602-48.363-33.133-100.62-33.891-153.59v-111.42c0-24.445 6.3047-48.477 18.305-69.773 4.7656-8.4375 7.0195-18.059 6.5-27.73-0.51953-9.6758-3.7891-19-9.4297-26.879l-38.672-53.977c-2.8594-3.9961-4.207-8.8789-3.8047-13.773 0.40234-4.8984 2.5312-9.4961 6.0078-12.969 4.0469-4.0508 9.5898-6.25 15.316-6.0781 5.7227 0.17578 11.121 2.7031 14.918 6.9922l46.477 43.266c45.359 42.039 82.387 92.254 109.15 148.01 3.8672 7.9922 7.2891 15.586 9.6328 22.055 15.426 41.883 25.719 85.484 30.656 129.84 0 0 16.969 152.74 7.0312 232.03 0 0-4.3359 43.312-14.906 80.695-5.0625 17.332-7.5898 35.309-7.5 53.367 0.074219 13.699 1.8125 27.34 5.1797 40.617 17.32 64.828 109.88 58.734 118.83-7.7812 2.9531-21.891 1.6172-51.164-7.1953-90.305-4.6875-20.789-8.625-41.742-11.297-62.883-6.3984-50.25-14.297-135.28-3.9141-191.93 5.9766-32.648 25.57-47.484 47.414-53.391 23.77-6.1172 49.023-1.5469 69.141 12.516 9 6.1406 17.977 12.164 26.93 18.07 32.266 20.895 56.805 51.781 69.867 87.938 5.0312 14.086 7.9609 28.84 8.6953 43.781v23.438c0.097656 15.84-3.7344 31.453-11.156 45.445-0.72656 1.3594-1.5 2.7188-2.3438 4.125-6.5156 11.074-10.582 23.41-11.93 36.188-2.9766 29.555-0.5625 77.812 42.047 96.281 13.75 6.2344 29.516 6.2344 43.266 0 22.664-10.852 48.492-42.727 26.438-136.24zm-635.16-64.406c-3.9609 22.195-20.742 37.781-37.5 34.805s-27.07-23.438-23.133-45.586c3.9375-22.148 20.742-37.781 37.5-34.805 16.758 2.9766 27.07 23.391 23.133 45.586z" fill="#fff"/>
</svg>

<?xml version="1.0" encoding="UTF-8" standalone="no"?>
<!DOCTYPE svg PUBLIC "-//W3C//DTD SVG 1.1//EN" "http://www.w3.org/Graphics/SVG/1.1/DTD/svg11.dtd">
<svg width="100%" height="100%" viewBox="0 0 1006 1108" version="1.1" xmlns="http://www.w3.org/2000/svg" xmlns:xlink="http://www.w3.org/1999/xlink" xml:space="preserve" xmlns:serif="http://www.serif.com/" style="fill-rule:evenodd;clip-rule:evenodd;stroke-linejoin:round;stroke-miterlimit:2;">
    <g transform="matrix(1,0,0,1,-97.182,-46.1613)">
        <path d="M891.66,933.68C890.269,926.469 889.484,919.153 889.316,911.813C888.918,894.618 897.496,878.454 911.957,869.145C926.418,859.836 944.68,858.723 960.168,866.204C985.949,878.626 1010.42,889.642 1033.57,899.415C1083.29,920.274 1125.96,857.884 1088.49,819.118C991.996,719.321 898.218,629.088 808.898,548.068L808.898,477.966C808.894,457.407 802.269,437.396 790.007,420.896C781.804,409.834 773.741,399.029 766.874,389.841C762.058,383.555 759.753,375.708 760.409,367.818C761.062,359.931 764.628,352.568 770.413,347.162C776.71,341.482 785.046,338.607 793.503,339.193C801.964,339.783 809.823,343.783 815.273,350.279C833.578,372.123 855.398,398.443 874.007,420.943C895.753,447.295 924.46,467.021 956.859,477.873C992.105,489.697 1028.01,499.463 1064.39,507.123C1090.4,512.584 1111.71,485.021 1098.94,461.701C1022.32,321.851 900.846,226.721 900.846,226.721C748.876,112.861 620.726,65.821 553.246,47.261C546.192,45.335 538.676,46.042 532.101,49.245C525.527,52.452 520.343,57.94 517.515,64.686C514.687,71.428 514.406,78.975 516.73,85.909C556.011,202.609 613.457,263.169 613.457,263.169C613.457,263.169 679.082,340.372 684.707,438.649C462.477,248.919 276.937,121.889 160.477,52.329C122.719,29.782 80.274,73.587 104.086,110.548C109.852,119.501 115.688,128.368 121.594,137.15L121.454,137.15C121.454,137.15 213.282,306.25 201.329,614.29L202.149,702.813C202.586,732.004 197.438,761.008 186.985,788.266C184.481,794.719 181.633,801.032 178.454,807.18C165.083,832.114 157.528,859.746 156.352,888.016C155.461,916.891 161.461,949.61 186.118,973.235C204.013,990.133 228.122,998.837 252.68,997.262C277.242,995.688 300.043,983.981 315.633,964.938C330,947.102 340.735,921.086 339.492,883.235C338.675,864.024 334.054,845.169 325.898,827.758C304.296,779.395 292.765,727.138 292.007,674.168L292.007,562.748C292.007,538.303 298.311,514.271 310.312,492.975C315.077,484.538 317.331,474.916 316.812,465.245C316.292,455.569 313.023,446.245 307.382,438.366L268.71,384.389C265.851,380.393 264.503,375.51 264.905,370.616C265.308,365.718 267.437,361.12 270.913,357.647C274.96,353.596 280.503,351.397 286.229,351.569C291.952,351.745 297.35,354.272 301.147,358.561L347.624,401.827C392.983,443.866 430.011,494.081 456.774,549.837C460.641,557.829 464.063,565.423 466.407,571.892C481.833,613.775 492.126,657.376 497.063,701.732C497.063,701.732 514.032,854.472 504.094,933.762C504.094,933.762 499.758,977.074 489.188,1014.46C484.126,1031.79 481.598,1049.77 481.688,1067.82C481.762,1081.52 483.501,1095.16 486.868,1108.44C504.188,1173.27 596.748,1167.17 605.698,1100.66C608.651,1078.77 607.315,1049.5 598.503,1010.36C593.815,989.566 589.878,968.613 587.206,947.472C580.807,897.222 572.909,812.192 583.291,755.542C589.268,722.894 608.861,708.058 630.705,702.151C654.475,696.034 679.728,700.604 699.846,714.667C708.846,720.808 717.823,726.831 726.776,732.737C759.042,753.632 783.581,784.518 796.643,820.675C801.675,834.761 804.604,849.515 805.339,864.456L805.339,887.894C805.436,903.734 801.604,919.347 794.183,933.339C793.456,934.698 792.683,936.058 791.839,937.464C785.323,948.538 781.257,960.874 779.909,973.652C776.932,1003.21 779.346,1051.46 821.956,1069.93C835.706,1076.17 851.472,1076.17 865.222,1069.93C887.886,1059.08 913.714,1027.21 891.66,933.693L891.66,933.68ZM256.5,869.274C252.539,891.469 235.758,907.055 219,904.079C202.242,901.103 191.93,880.641 195.867,858.493C199.805,836.345 216.609,820.712 233.367,823.688C250.125,826.665 260.437,847.079 256.5,869.274Z" style="fill:white;fill-rule:nonzero;"/>
    </g>
</svg>
